icons/2_Variations/Philips alt.svg

<svg xmlns="http://www.w3.org/2000/svg" width="1024" height="1024" fill="none">
   <g clip-path="url(#a)">
      <path fill="#728DBE" d="M512 1024c282.77 0 512-229.23 512-512S794.77 0 512 0 0 229.23 0 512s229.23 512 512 512Z"/>
      <path fill="#fff" d="M362.3 358.5h-2.2v-25.3c1.1-.1 1.3-.1 2.2-.1 9.2 0 13.6 4.4 13.6 12 0 8-3.9 13.4-13.6 13.4ZM713 285v297.3C713 699.2 622.2 786 512 786c-111.2 0-201-87.9-201-201V285s82.6-11 202-11c120.2 0 200 11 200 11Zm-132.1 99.1h18.7v-14.6h6.7c17.4 0 28.4-9 28.4-24.6 0-17.2-11.8-23.3-31-23.3-7.4 0-16.4.5-22.8 1.3v61.2Zm-32.8 0h18.7v-61.2h-18.7v61.2Zm-43.2 0h33.8l2.8-12.3h-17.9v-48.9h-18.7v61.2Zm-32.5 0H491v-61.2h-18.7v61.2h.1Zm-3.2 32.2 3 23c.9 6.8 3.3 9.9 10.7 11.2l25.9 3.4v1.8l-24.3 3.3c-8.3 1-11.4 4.1-12.2 10.7l-2.9 22.8 30 3.6v3.1l-46.7 6.2c-16.5 2.6-19.1 7.7-21.9 27.2l-4.6 39.4c63.3-11.9 100.2-58.2 172.9-58.2 35.9 0 65.8 13.7 80.4 23.2-14-53.3-71.2-126.1-167.5-126.1-24.9 0-42.8 5.4-42.8 5.4ZM432 469.6c1.3 11.4 6.4 17.7 15.5 19.6l19.2 2.8-2.6-20.4c-1-8-3.7-11.7-11.2-12.6l-22.8-3.2 1.9 13.8Zm34.8-52.7c-15.5 3.9-28.9 9.9-39.7 16l2.5 20.7 22-2.8c7.8-1.2 10.9-3.5 12.2-10.7l3-23.2Zm-65.1-32.8h18.7V360h19.4v24.1h18.7v-61.2h-18.7v24.3h-19.4v-24.3h-18.7v61.2Zm-38.4 110.3 33.5-4.4c6.2-1.1 11.4-2.5 14.6-6 3.7-4.4 4.5-7.8 5.4-14.8l4.3-32.6c-26.1 15.8-45.1 36.7-57.8 57.8Zm-22.7-110.3h18.7v-14.6h6.7c17.4 0 28.4-9 28.4-24.6 0-17.2-11.8-23.3-31-23.3-7.4 0-16.4.5-22.8 1.3v61.2Zm-1.4 179c13.7 5.5 35.2 11.6 58.9 11.6 13.7-.1 24.7-2 24.7-2l-5.4-42.2c-1.9-13.5-3.3-15.6-6.5-19.2-3.3-3.7-8.3-5.1-15.1-6l-36.2-4.6C348.8 521 342 539 339.2 563.1Zm184.6 110.4v-3.2l47.3-6c14.8-2.5 18.2-7.8 20.3-20.1l6.1-47.7c-57.6 10.2-94.9 59.1-171.8 59.1-29.5 0-60.2-9.9-81.5-23.3 24.2 81 94.1 127 167.7 127 38.8 0 69.8-13.2 84.3-21.9l-5-37.3c-1.6-14.5-8.4-19.4-23.1-21l-44.3-5.6Zm137.3 1.7-33.9 4.4c-16.3 2.1-19 8.2-21.5 25l-3.7 29.8c22.8-14.8 41.9-31.5 59.1-59.2Zm3.5-6c13.5-25 17.4-42.2 20.4-63.3-12.6-5.6-39.7-12-59.6-12-13.3 0-25 2-25 2l5.8 45.2c2.2 17.1 6.6 21.5 24.3 23.5l34.1 4.6Zm21.5-85c-.3-7.2-.5-14.5-1.4-21.7-18.7-11.6-46.4-21-79.2-21-79.6 0-116.1 60.6-197 60.6-33.4 0-55.9-9.2-70.9-17 .1 6.6.7 16.6 1.2 21.5 21.1 13 47.5 21.1 79.2 21.1 82 0 115.4-60.2 197.2-60.2 27.4-.1 49.6 6.2 70.9 16.7Zm2.2-219.3c0-20.5-29.4-16.6-29.4-26.4 0-3.3 3.3-4.9 8.7-4.9 5.9 0 12.3 1.3 16.6 3.1l-1.5-13.3c-4.9-1-9.2-1.8-17.1-1.8-15.1 0-25.3 6-25.3 18.4 0 21.5 29.2 17.2 29.2 27.1 0 3.8-2.8 5.9-9.7 5.9-6.1 0-15.6-2-21.2-4.9l2.1 14.1c5.6 2 13.3 3.1 19.4 3.1 15.4.1 28.2-5.1 28.2-20.4Zm-72.1-19.7c0-7.7-4.4-12-13.6-12-1 0-1.2 0-2.3.1v25.3h2.3c9.7-.1 13.6-5.5 13.6-13.4Zm-92.5 370.9 19.3 2.5c6.4.8 8.7 3.8 9.4 9.8l2.4 18.7h1.4l2.5-19.2c1.2-7.8 4.2-8.4 9.8-9.5l18.8-2.4v-1.5l-20.2-2.6c-5.3-.8-7.4-3.6-8.2-8.3l-2.6-20.1h-1.5l-2.6 20.5c-1.1 4.9-3 6.9-8.3 7.8l-20.1 2.7v1.6h-.1Z"/>
   </g>
   <defs>
      <clipPath id="a">
         <path fill="#fff" d="M0 0h1024v1024H0z"/>
      </clipPath>
   </defs>
</svg>

<svg width="1024" height="1024" viewBox="0 0 1024 1024" fill="none" xmlns="http://www.w3.org/2000/svg">
<g clip-path="url(#clip0_3_218)">
<path d="M512 1024C794.77 1024 1024 794.77 1024 512C1024 229.23 794.77 0 512 0C229.23 0 0 229.23 0 512C0 794.77 229.23 1024 512 1024Z" fill="#728DBE"/>
<path d="M362.3 358.5H360.1V333.2C361.2 333.1 361.4 333.1 362.3 333.1C371.5 333.1 375.9 337.5 375.9 345.1C375.9 353.1 372 358.5 362.3 358.5ZM713 285V582.3C713 699.2 622.2 786 512 786C400.8 786 311 698.1 311 585V285C311 285 393.6 274 513 274C633.2 274 713 285 713 285ZM580.9 384.1H599.6V369.5H606.3C623.7 369.5 634.7 360.5 634.7 344.9C634.7 327.7 622.9 321.6 603.7 321.6C596.3 321.6 587.3 322.1 580.9 322.9V384.1ZM548.1 384.1H566.8V322.9H548.1V384.1ZM504.9 384.1H538.7L541.5 371.8H523.6V322.9H504.9V384.1ZM472.4 384.1H491V322.9H472.3V384.1H472.4ZM469.2 416.3L472.2 439.3C473.1 446.1 475.5 449.2 482.9 450.5L508.8 453.9V455.7L484.5 459C476.2 460 473.1 463.1 472.3 469.7L469.4 492.5L499.4 496.1V499.2L452.7 505.4C436.2 508 433.6 513.1 430.8 532.6L426.2 572C489.5 560.1 526.4 513.8 599.1 513.8C635 513.8 664.9 527.5 679.5 537C665.5 483.7 608.3 410.9 512 410.9C487.1 410.9 469.2 416.3 469.2 416.3ZM432 469.6C433.3 481 438.4 487.3 447.5 489.2L466.7 492L464.1 471.6C463.1 463.6 460.4 459.9 452.9 459L430.1 455.8L432 469.6ZM466.8 416.9C451.3 420.8 437.9 426.8 427.1 432.9L429.6 453.6L451.6 450.8C459.4 449.6 462.5 447.3 463.8 440.1L466.8 416.9ZM401.7 384.1H420.4V360H439.8V384.1H458.5V322.9H439.8V347.2H420.4V322.9H401.7V384.1ZM363.3 494.4L396.8 490C403 488.9 408.2 487.5 411.4 484C415.1 479.6 415.9 476.2 416.8 469.2L421.1 436.6C395 452.4 376 473.3 363.3 494.4ZM340.6 384.1H359.3V369.5H366C383.4 369.5 394.4 360.5 394.4 344.9C394.4 327.7 382.6 321.6 363.4 321.6C356 321.6 347 322.1 340.6 322.9V384.1ZM339.2 563.1C352.9 568.6 374.4 574.7 398.1 574.7C411.8 574.6 422.8 572.7 422.8 572.7L417.4 530.5C415.5 517 414.1 514.9 410.9 511.3C407.6 507.6 402.6 506.2 395.8 505.3L359.6 500.7C348.8 521 342 539 339.2 563.1ZM523.8 673.5V670.3L571.1 664.3C585.9 661.8 589.3 656.5 591.4 644.2L597.5 596.5C539.9 606.7 502.6 655.6 425.7 655.6C396.2 655.6 365.5 645.7 344.2 632.3C368.4 713.3 438.3 759.3 511.9 759.3C550.7 759.3 581.7 746.1 596.2 737.4L591.2 700.1C589.6 685.6 582.8 680.7 568.1 679.1L523.8 673.5ZM661.1 675.2L627.2 679.6C610.9 681.7 608.2 687.8 605.7 704.6L602 734.4C624.8 719.6 643.9 702.9 661.1 675.2ZM664.6 669.2C678.1 644.2 682 627 685 605.9C672.4 600.3 645.3 593.9 625.4 593.9C612.1 593.9 600.4 595.9 600.4 595.9L606.2 641.1C608.4 658.2 612.8 662.6 630.5 664.6L664.6 669.2ZM686.1 584.2C685.8 577 685.6 569.7 684.7 562.5C666 550.9 638.3 541.5 605.5 541.5C525.9 541.5 489.4 602.1 408.5 602.1C375.1 602.1 352.6 592.9 337.6 585.1C337.7 591.7 338.3 601.7 338.8 606.6C359.9 619.6 386.3 627.7 418 627.7C500 627.7 533.4 567.5 615.2 567.5C642.6 567.4 664.8 573.7 686.1 584.2ZM688.3 364.9C688.3 344.4 658.9 348.3 658.9 338.5C658.9 335.2 662.2 333.6 667.6 333.6C673.5 333.6 679.9 334.9 684.2 336.7L682.7 323.4C677.8 322.4 673.5 321.6 665.6 321.6C650.5 321.6 640.3 327.6 640.3 340C640.3 361.5 669.5 357.2 669.5 367.1C669.5 370.9 666.7 373 659.8 373C653.7 373 644.2 371 638.6 368.1L640.7 382.2C646.3 384.2 654 385.3 660.1 385.3C675.5 385.4 688.3 380.2 688.3 364.9ZM616.2 345.2C616.2 337.5 611.8 333.2 602.6 333.2C601.6 333.2 601.4 333.2 600.3 333.3V358.6H602.6C612.3 358.5 616.2 353.1 616.2 345.2ZM523.7 716.1L543 718.6C549.4 719.4 551.7 722.4 552.4 728.4L554.8 747.1H556.2L558.7 727.9C559.9 720.1 562.9 719.5 568.5 718.4L587.3 716V714.5L567.1 711.9C561.8 711.1 559.7 708.3 558.9 703.6L556.3 683.5H554.8L552.2 704C551.1 708.9 549.2 710.9 543.9 711.8L523.8 714.5V716.1H523.7Z" fill="white"/>
</g>
<defs>
<clipPath id="clip0_3_218">
<rect width="1024" height="1024" fill="white"/>
</clipPath>
</defs>
</svg>
